app/images/linkedin.svg

<svg width="18" height="18" viewBox="0 0 18 18" fill="none" xmlns="http://www.w3.org/2000/svg">
<path d="M7.19692 12.025H5.73025V7.25925H7.19692V12.025ZM6.46358 6.64783C5.93467 6.64783 5.66975 6.40308 5.66975 5.9145C5.66811 5.81645 5.68775 5.71921 5.72731 5.62948C5.76687 5.53975 5.82542 5.45967 5.89892 5.39475C6.05177 5.25214 6.25461 5.17542 6.46358 5.18117C6.9925 5.18117 7.25742 5.42683 7.25742 5.91542C7.25742 6.404 6.99342 6.64783 6.46358 6.64783ZM12.6364 12.025H11.1395V9.36667C11.1395 8.67458 10.8938 8.32808 10.4053 8.32808C10.0184 8.32808 9.7645 8.5215 9.64075 8.90833C9.60133 8.96975 9.58025 9.09258 9.58025 9.275V12.025H8.08333V8.78642C8.08333 8.05308 8.07233 7.54433 8.05308 7.25925H9.33642L9.42808 7.9C9.7645 7.39033 10.2531 7.13642 10.925 7.13642C11.4356 7.13642 11.8472 7.31425 12.1625 7.67083C12.4797 8.02742 12.6373 8.54167 12.6373 9.2145V12.025H12.6364ZM9 17.25C4.45058 17.25 0.75 13.5494 0.75 9C0.75 4.45058 4.45058 0.75 9 0.75C13.5494 0.75 17.25 4.45058 17.25 9C17.25 13.5494 13.5494 17.25 9 17.25ZM9 2.58333C5.46258 2.58333 2.58333 5.46258 2.58333 9C2.58333 12.5374 5.46258 15.4167 9 15.4167C12.5374 15.4167 15.4167 12.5374 15.4167 9C15.4167 5.46258 12.5374 2.58333 9 2.58333Z" fill="black"/>
</svg>

<svg width="18" height="18" fill="none" xmlns="http://www.w3.org/2000/svg"><path d="M7.197 12.025H5.73V7.259h1.467v4.766zm-.733-5.377c-.53 0-.794-.245-.794-.733a.678.678 0 01.229-.52.796.796 0 01.565-.214c.528 0 .793.246.793.734 0 .489-.264.733-.793.733zm6.172 5.377H11.14V9.367c0-.692-.246-1.039-.735-1.039-.387 0-.64.194-.764.58-.04.062-.06.185-.06.367v2.75H8.082V8.786c0-.733-.01-1.242-.03-1.527h1.283l.092.641c.336-.51.825-.764 1.497-.764.51 0 .922.178 1.237.535.318.356.475.87.475 1.543v2.811zM9 17.25C4.45 17.25.75 13.55.75 9S4.45.75 9 .75s8.25 3.7 8.25 8.25-3.7 8.25-8.25 8.25zM9 2.583A6.425 6.425 0 002.583 9 6.425 6.425 0 009 15.417 6.425 6.425 0 0015.417 9 6.425 6.425 0 009 2.583z" fill="#000"/></svg>
